X: 1
T: Tie-dye the Knot
C: Liz Donaldson 2015
N: Written in celebration of the Wedding of Stephanie Smith and Will Strang. October 23, 2015.
R: waltz
Z: 2015 John Chambers <jc:trillian.mit.edu>
M: 3/4
L: 1/8
K: D
A2 |\
"D"dc cd dA | "G"dc cd dB | "D"dc cd AG | F4 D2 |\
"G"B,3 D F2 | "A"C2 E2 A2 | "D"F6- | "A"FA BA cA ||
"D"dc cd dA | "G"dc cd dB | "D"dc cd ed | f6 |\
"G"GB e4 | "A"FG e4 | "D"d6- | d4 |]
c2 |\
"Bm"Bc dc Bd | "G"G6 | "Bm"Bc dc Bd | "F#m"A6 |\
"G"Bc dc de | "Em"cd ed ef | "D"f6- | "D#dim"f6 ||
"Em"gf eg fg | "G"B6 | "D"fe df ef | "F#m"A6 !coda!|\
"G"GA e4 | "A"FG e4 | "D"d6- | "^D.C. al Coda"d4 |]
!coda![|\
"G"GA e4- | e6 | "A"FG e4- | e4 |\
"D"d6- | "G"d6- | "D"d6- | d6 |]
